!!!!SEGMENT: pl-sa--497-a-viii-137--002_anonim--nihil-est-in-mundo-recitativo.krn
!!!cenid: 17xx:1293
!!!COM: Anonim
!!!COM-rismID: pe30004985
!!!CDT:
!!!CNT:
!!!OPR: Nihil est in mundo
!!!OTL: Recitativo
!!!OMV: 002
!!!PDT:
!!!AGN:
!!!SMS-siglum: PL-SA
!!!SMS-shelfmark: 497/A VIII 137
!!!SMS-shelfwork: 001-002 M
!!!SMS-variant:
!!!SMS-altvar:
!!!NIFC-rismSourceID: 1001069546
!!!NIFC-rismChildID: 1001069546
!!!NIFC-islandoraID:
!!!URL-pdf-islandora:
!!!URL-scan: https://bc.bdsandomierz.pl/dlibra/publication/1183/edition/1142/content @EN{Scan in the Sandomierz Diocese Digital Library} @PL{Skany w portalu Cyfrowa Biblioteka Diecezjalna w Sandomierzu}
!!!ONB-nifc: UWAGA: części Nihil est in mundo: 1. Sonata, 2. Recitativo, 3. Aria
!!!AIN: 1 organ 1 soprn 1 viola 2 violn
!!!key: A
**kern	**fba	**kern	**kern	**kern	**kern	**text
*part5	*part5	*part4	*part3	*part2	*part1	*part1
*staff5	*	*staff4	*staff3	*staff2	*staff1	*staff1
*I"Organo	*	*I"alto viola	*I"Violino 2do	*I"Violino 1mo	*I"Canto Solo	*
*I'org	*	*I'a-vla	*I'vl 2	*I'vl 1	*I'S solo	*
*Iorgan	*	*Iviola	*Ivioln	*Ivioln	*Isoprn	*
*ICklav	*	*ICstr	*ICstr	*ICstr	*ICvox	*
*IGcont	*	*	*	*	*	*
*clefF4	*	*clefC3	*clefG2	*clefG2	*clefC1	*
*k[f#c#g#]	*	*k[f#c#g#]	*k[f#c#g#]	*k[f#c#g#]	*k[f#c#g#]	*
*A:	*	*A:	*A:	*A:	*A:	*
*M4/4	*	*M4/4	*M4/4	*M4/4	*M4/4	*
*met(C.)	*	*met(C.)	*met(C.)	*met(C.)	*met(C.)	*
=1	=1	=1	=1	=1	=1	=1
!LO:TX:b:t=canto solo	!	!	!	!	!LO:TX:t=P:problem=znaki f# cc# g#	!
!LO:TX:b:rj:t=Lente	!	!LO:TX:a:t=Retitativo\nTacet	!LO:TX:a:t=Retitativo\nTacet	!LO:TX:a:t=Recitativo\nTacet	!LO:TX:a:t=Recitativo	!
1AA	.	1ryy	1ryy	1ryy	4r	.
.	.	.	.	.	8r	.
.	.	.	.	.	16cc#\	Ni-
!	!	!	!	!	!LO:TX:t=P:global:problem=oddech jako rozdzielacz słów	!
.	.	.	.	.	16ee,<\	-hil
*	*	*	*	*	*	*ij
.	.	.	.	.	8.a\	Ni-
.	.	.	.	.	16a,<\	-hil
*	*	*	*	*	*	*Xij
.	.	.	.	.	8a\	est
.	.	.	.	.	8a\	in
=2	=2	=2	=2	=2	=2	=2
2AA/	4 2	1ryy	1ryy	1ryy	8b\	Mun-
.	.	.	.	.	8b\	-do
.	.	.	.	.	8r	.
.	.	.	.	.	8b,<\	quod
2GG#X/	.	.	.	.	8b\	ul-
.	.	.	.	.	16cc#,<\	-tra
.	.	.	.	.	16cc#\	a-
.	.	.	.	.	8dd\	-mar
.	.	.	.	.	16dd,<\	et
.	.	.	.	.	16dd\	cor
!	!	!	!	!	!LO:LB:g=original	!
=3	=3	=3	=3	=3	=3	=3
2AA/	5	1ryy	1ryy	1ryy	16dd\LL	me-
.	.	.	.	.	16cc#\JJ	.
.	.	.	.	.	8cc#\	-um
.	.	.	.	.	16r	.
.	.	.	.	.	16ee\	ni-
.	6	.	.	.	16ff#\	-chil
.	.	.	.	.	16ee,<\	est
*	*	*	*	*	*	*ij
2BB/	#	.	.	.	8.dd#X\	ni-
.	.	.	.	.	16cc#\	-chil
.	.	.	.	.	8b,<\	est
*	*	*	*	*	*	*Xij
.	.	.	.	.	16dd#X\	prae-
.	.	.	.	.	16dd#\	-ter
=4	=4	=4	=4	=4	=4	=4
8r	.	1ryy	1ryy	1ryy	4ee,<\	te,
8C#/L	.	.	.	.	.	.
8BB/	.	.	.	.	8r	.
8AA/J	.	.	.	.	8cc#\	te
!LO:TX:t=P:problem=mixed beam	!	!	!	!	!	!
8B\L	.	.	.	.	(4g#/	De-
8A\	4	.	.	.	.	.
8B\	6	.	.	.	4f#/)	.
8BB/J	.	.	.	.	.	.
=5	=5	=5	=5	=5	=5	=5
4E\	.	1ryy	1ryy	1ryy	2e,</	-um
4D\	-	.	.	.	.	.
4C#/	.	.	.	.	8e/	va-
.	.	.	.	.	16f#/	-ni-
.	.	.	.	.	16g#,</	-tas
4AA/	n	.	.	.	8a\	va-
.	8	.	.	.	.	.
.	7	.	.	.	8gn/	-ni-
=6	=6	=6	=6	=6	=6	=6
4D/	.	1ryy	1ryy	1ryy	4f#/	-ta-
4C#/	6	.	.	.	8f#,</	-tu(m)
!	!	!	!	!	!LO:TX:a:t=P:problem=wszystkie custos użyte jako łamanie pięciolinii	!
.	.	.	.	.	8a\	Sunt
*	*	*	*	*	*custos:b	*
*	*	*	*	*	*custos:g	*
!	!	!	!	!	!LO:LB:g=original	!
4BB/	.	.	.	.	8dd\	om-
.	.	.	.	.	16ee\	-ni-
.	.	.	.	.	16dd\	-a
*	*	*	*	*	*	*ij
4D/	.	.	.	.	8dd\	om-
.	.	.	.	.	16b\	-ni-
.	.	.	.	.	16a\	-a
*	*	*	*	*	*	*Xij
=7	=7	=7	=7	=7	=7	=7
4E\	.	1ryy	1ryy	1ryy	8.g#/	va-
.	.	.	.	.	16f#/	-ni-
4D\	.	.	.	.	8e,</	-tas
.	.	.	.	.	8ee\	sunt
4C#/	6	.	.	.	8.ee\	Om-
.	.	.	.	.	16a#X\	-ni-
4F#\	#	.	.	.	8a#,<\	-a
.	.	.	.	.	8dd\	Sunt
=8	=8	=8	=8	=8	=8	=8
4BB/	.	1ryy	1ryy	1ryy	8dd\	Om-
.	.	.	.	.	16ee\	-ni-
.	.	.	.	.	16dd,<\	-a
4E\	7	.	.	.	8dd\	Om-
.	6 5	.	.	.	16cc#\	-ni-
.	.	.	.	.	16b,<\	-a
!LO:TX:t=P:problem=mixed beam	!	!	!	!	!	!
8F#\L	.	.	.	.	8a#X\L	va-
8E\	.	.	.	.	16b\L	.
.	.	.	.	.	16cc#\JJ	.
*	*	*	*	*	*custos:cc	*
*	*	*	*	*	*custos:a	*
!	!	!	!	!	!LO:LB:g=original	!
8F#\	# 4	.	.	.	8.cc#\	.
8FF#/J	x 3	.	.	.	.	.
.	.	.	.	.	16b\	-ni-
!LO:LB:g=original	!	!	!	!	!	!
=9	=9	=9	=9	=9	=9	=9
4BB/	.	1ryy	1ryy	1ryy	4b\	-tas
4GG#X/	6 #	.	.	.	8r	.
.	.	.	.	.	8ee\	prae-
8AA/L	.	.	.	.	8ee\	-ter
8C#/	.	.	.	.	(16dd\LL	a-
.	.	.	.	.	16cc#\JJ)	.
8D/	6	.	.	.	8.b\	-mar
8BB/J	7	.	.	.	.	.
.	.	.	.	.	16a\	e(t)
=10	=10	=10	=10	=10	=10	=10
4E\	.	1ryy	1ryy	1ryy	8g#/	De-
.	.	.	.	.	8e/	-um
4D#X\	n7	.	.	.	8r	.
.	.	.	.	.	8ccn\	prae-
2r	.	.	.	.	8cc,<\	-ter
.	.	.	.	.	8cc\	a-
.	.	.	.	.	8cc\	-mar
.	.	.	.	.	8cc\	e(t)
=11	=11	=11	=11	=11	=11	=11
*2\right	*	*	*	*	*	*
2E\	6 n4	1ryy	1ryy	1ryy	(8ccn\L	De-
.	5 3	.	.	.	8b\J)	.
.	.	.	.	.	4b\	-um
2D#X\	7	.	.	.	8r	.
.	.	.	.	.	8cc\	a-
.	.	.	.	.	8cc\	-mar
.	6	.	.	.	8b\	e
=12	=12	=12	=12	=12	=12	=12
*	*	*	*	*	*2\right	*
2E\	4	1ryy	1ryy	1ryy	2b\	De-
.	#	.	.	.	.	.
2AA/	.	.	.	.	2a\	-us
==	==	==	==	==	==	==
*-	*-	*-	*-	*-	*-	*-
!!!system-decoration: s1[(s2,s3,s4)]s5
!!!RDF**kern: < = below
!!!ENC: Marcin Jachim
!!!END: 2020-11-24
!!!ENC: Marta Lawrence
!!!END: 2022-03-06
!!!YEC: Copyright 2022 Narodowy Instytut Fryderyka Chopina (https://polishscores.org)
!!!YEM: License CC-BY-4.0 (https://creativecommons.org/licenses/by/4.0)
